!!!COM:	de Orto, Marbrianus
!!!CDT:	~1460///-1529//
!!!OPR:	Missa J'ay pris amours
!!!ONM:	2
!!!OTL:	Gloria
!!!AGN:	Mass; Gloria
!!!SCT:	Ort1002b
!!!SCA:	Ort1002b
!!!voices-OPR:	4
!!!voices:	4
**kern	**kern	**kern	**kern
*staff4	*staff3	*staff2	*staff1
*Ivox	*Ivox	*Ivox	*Ivox
*I"Bassus	*I"Tenor	*I"Altus	*I"Discantus
*I'B	*I'T	*I'A	*I'D
*>[A,B,C]	*>[A,B,C]	*>[A,B,C]	*>[A,B,C]
*>A	*>A	*>A	*>A
*clefF4	*clefGv2	*clefGv2	*clefG2
*k[]	*k[]	*k[]	*k[]
*M3/1	*M3/1	*M3/1	*M3/1
*met(O)	*met(O)	*met(O)	*met(O)
!!section: Et in terra pax
!!!OMD: Et in terra pax
=1-	=1-	=1-	=1-
1A	0.r	1A	0.r
2A\	.	1c	.
2A\	.	.	.
1G	.	1B	.
=2	=2	=2	=2
2.A\	0.r	2A/	0.r
.	.	1c	.
4G\	.	.	.
1E	.	.	.
.	.	2B\	.
2r	.	2E/	.
2A\	.	[2c\	.
=3	=3	=3	=3
2A\	0.r	2c\]	0.r
2G\	.	2B\	.
2.A\	.	2A/	.
.	.	2.c\	.
4G\	.	.	.
1E	.	.	.
.	.	4B\	.
.	.	2G/	.
=4	=4	=4	=4
2r	0.r	2A/	0.r
1A	.	2.e\	.
.	.	4f\	.
2E\	.	2g\	.
2A\	.	2c\	.
2G\	.	[2e\	.
=5	=5	=5	=5
2E\	0.r	2e\]	0.r
2A\	.	2c\	.
2G\	.	2B\	.
1A	.	2A/	.
.	.	1B	.
2G#i\	.	.	.
=6	=6	=6	=6
1A	1A	1A	1a
2F\	1A	2r	1cc
2A\	.	2.e\	.
1E	1G	.	1b
.	.	4f\	.
.	.	2g\	.
=7	=7	=7	=7
1r	2.A/	2.c\	1e
.	4G/	4d\	.
2B\	1E	1e	2r
2B\	.	.	2g/
2.c\	1r	1e	2g/
.	.	.	2a/
4B\	.	.	.
=8	=8	=8	=8
2G\	1r	2d\	2b\
2.C/	.	2.e\	2.cc\
.	1G	.	.
4D\	.	4d\	4b\
2.E\	.	2B\	2g/
.	2G/	2e\	2r
4F\	.	.	.
2G\	2G/	2d\	2b\
=9	=9	=9	=9
2F\	2A/	1f	2cc\
2D\	2B\	.	2dd\
1C	2.c\	0g	2.ee\
.	4B\	.	4dd\
2.E\	1G	.	1b
4D\	.	.	.
=10	=10	=10	=10
2E\	1r	2g\	1r
2D\	.	4f\	.
.	.	4e\	.
1G	2r	1d	1r
.	2B\	.	.
1A	1c	1c	1e
=11	=11	=11	=11
1D	1d	2.A/	2f/
.	.	.	2f/
.	.	4B\	.
2r	1e	1c	2e/
1C	.	.	2.g/
.	2c\	1g	.
.	.	.	4a/
2G\	2d\	.	2b\
=12	=12	=12	=12
2A\	2c\	2e\	1cc
2F\	2A/	2f\	.
2G\	2G/	1d	2b\
2F\	2A/	.	1a
1E	1B	1e	.
.	.	.	2g#i/
=13	=13	=13	=13
1r	1A	2r	0a
.	.	2e\	.
2r	1r	2d\	.
1A	.	1c	.
.	1r	.	1r
2G\	.	2B\	.
=14	=14	=14	=14
1F	1r	2c\	2r
.	.	2.d\	1a
1E	1r	.	.
.	.	4B\	.
.	.	2c#i\	2g/
1D	2r	1d	1f
.	[2A/	.	.
=15	=15	=15	=15
1r	2A/]	2r	1e
.	2G/	1e	.
1A	1F	.	1r
.	.	2d\	.
1B	1E	1e	2r
.	.	.	2g/
=16	=16	=16	=16
1c	0.r	1r	2a/
.	.	.	2g/
1d	.	1r	1f
2.e\	.	1c	1e
4d\	.	.	.
=17	=17	=17	=17
1B	0.r	1d	2r
.	.	.	1g
2E\	.	2e\	.
2F\	.	2d\	2a/
2E\	.	2g\	2b\
[2A\	.	2e\	[2cc\
=18	=18	=18	=18
4A\]	0.r	2f\	4cc\]
4B\	.	.	4b\
1c	.	1e	2g/
.	.	.	2a/
2B\	.	1d	1g
2.A\	.	.	.
.	.	[2c\	2f/
4G\	.	.	.
=19	=19	=19	=19
2E\	0.r	2c\]	2g/
2D\	.	2d\	2.f/
2E\	.	1B	.
.	.	.	4e/
2G\	.	.	1e
1F	.	2.A/	.
.	.	.	2d/
.	.	4B\	.
=20	=20	=20	=20
0E	0.r	1c	0e
.	.	1B	.
1r	.	1r	1r
=21	=21	=21	=21
2.E\	[0.e	1r	1b
4F\	.	.	.
2G\	.	1r	2b\
2A\	.	.	2cc\
2G\	.	2r	2b\
[2E\	.	2B\	2g/
=22	=22	=22	=22
2E\]	0.e_	2B\	2r
2A\	.	2c\	2a/
2G\	.	2B\	2b\
2E\	.	2G/	2b\
1A	.	2r	2.cc\
.	.	2A/	.
.	.	.	4b\
=23	=23	=23	=23
2.E\	0.e_	2B\	1g
.	.	2c\	.
4F\	.	.	.
2G\	.	2B\	1r
2A\	.	2.A/	.
2.AA/	.	.	2.cc\
.	.	4B\	.
.	.	[2c\	.
4BB/	.	.	4b\
=24	=24	=24	=24
4C/	0.e]	2c\]	2a/
4D\	.	.	.
2E\	.	2B\	2g/
2AA/	.	1A	2a/
2A\	.	.	2cc\
2G\	.	2E/	2b\
2A\	.	2A/	2cc\
=25	=25	=25	=25
2E\	0.e	2G/	2b\
1c	.	2A/	2a/
.	.	2E/	2g/
2A\	.	2r	2cc\
1G	.	1r	1b
=26	=26	=26	=26
0.F	[0.f	2c\	1a
.	.	2c\	.
.	.	2.d\	1r
.	.	4c\	.
.	.	1A	2cc\
.	.	.	2cc\
=27	=27	=27	=27
0D	0.f]	2r	2.dd\
.	.	2A/	.
.	.	.	4cc\
.	.	1d	1a
1D	.	1d	1r
=28	=28	=28	=28
1E	[0.e	2B\	2.g/
.	.	2c\	.
.	.	.	4a/
1r	.	2G/	2b\
.	.	2A/	1a
1E	.	1B	.
.	.	.	2g/
=29	=29	=29	=29
1A	0.e]	1A	1cc
1G	.	1E	1b
1A	.	2r	2.cc\
.	.	[2e\	.
.	.	.	4dd\
=30	=30	=30	=30
1A	0c	2e\]	0ee
.	.	2e\	.
2E\	.	0g	.
2C/	.	.	.
1G	1B	.	2.dd\
.	.	.	4cc\
=31	=31	=31	=31
1A	1c	1f	1.cc
0G	0d	0g	.
.	.	.	2b\
.	.	.	2b\
.	.	.	2a/
=32	=32	=32	=32
1C	0.c	1e	2.cc\
.	.	.	4b\
1r	.	2r	2a/
.	.	2E/	2g/
1r	.	1F	1a
=33	=33	=33	=33
2.c\	0.r	2E/	1r
.	.	2.F/	.
4B\	.	.	.
2A\	.	.	1r
.	.	4E/	.
2G\	.	1G	.
1A	.	.	2cc\
.	.	2F#i/	2cc\
=34	=34	=34	=34
2.G\	0.r	1Bn	4dd\
.	.	.	4cc\
.	.	.	4b\
4F\	.	.	4a/
2E\	.	2c\	2g/
2D\	.	2d\	1a
1E	.	1B	.
.	.	.	2g#i/
=35	=35	=35	=35
2.F\	[0.c	1A	2.a/
4E\	.	.	4g/
1C	.	1G	2e/
.	.	.	2.cc\
1F	.	1A	.
.	.	.	4b\
.	.	.	2a/
=36	=36	=36	=36
2E\	1c]	1r	2g/
1F	.	.	2.a/
.	2c\	1r	.
.	.	.	4g/
2G\	2B\	.	1g
1D	1A	1d	.
.	.	.	2f#i/
=37	=37	=37	=37
1E	2G/	2B\	1g
.	1c	2G/	.
1F	.	2c\	1a
.	2d\	2A/	.
2E\	1e	2B\	2g/
[2A\	.	2A/	[2cc\
=38	=38	=38	=38
4A\]	1A	2e\	4cc\]
4G\	.	.	4b\
2F\	.	2f\	2cc\
2G\	2G/	2d\	2b\
2E\	1c	2e\	2g/
1F	.	2r	1a
.	2d\	2A/	.
=39	=39	=39	=39
1E	1e	2B\	2r
.	.	2.c\	2g/
1r	1A	.	1cc
.	.	4d\	.
.	.	4e\	.
.	.	4f\	.
1r	2G/	[1g	2dd\
.	[2c\	.	[2ee\
=40	=40	=40	=40
2C/	2c\]	1g]	4ee\]
.	.	.	4dd\
2G\	2d\	.	1b
2E\	1e	2g\	.
1A	.	2c\	1cc
.	1A	2e\	.
2D\	.	2f\	[2dd\
=41	=41	=41	=41
2G\	2G/	2g\	2dd\]
2A\	1c	2e\	2cc\
1F	.	2r	1a
.	2d\	2A/	.
1E	2e\	1B	1g
.	4d\	.	.
.	4c\	.	.
=42	=42	=42	=42
0.El	0.Bl	0.el	0.gl
!!LO:LB:i:g=z
=43||	=43||	=43||	=43||
*>B	*>B	*>B	*>B
*clefF4	*clefGv2	*clefGv2	*clefG2
*k[]	*k[]	*k[]	*k[]
*M2/1	*M2/1	*M2/1	*M2/1
*met(C|)	*met(C|)	*met(C|)	*met(C|)
!!section: Qui tollis
!!!OMD: Qui tollis
1E	0r	0r	0r
1E	.	.	.
=44	=44	=44	=44
1F	0r	1A	0r
1E	.	1B	.
=45	=45	=45	=45
1A	0r	1c	0r
1G	.	1B	.
=46	=46	=46	=46
0F	0r	1c	1a
.	.	1d	1a
=47	=47	=47	=47
0E	0r	1.B	1.b
.	.	4A/	2cc\
.	.	4G/	.
=48	=48	=48	=48
0r	0r	1.B	1.dd
.	.	2A/	2cc\
=49	=49	=49	=49
0r	0r	2d\	2b\
.	.	2e\	2g/
.	.	1c	1a
=50	=50	=50	=50
0r	0E	2.B\	1b
.	.	4A/	.
.	.	2B\	1r
.	.	2G/	.
=51	=51	=51	=51
0r	1F	2c\	1a
.	.	2d\	.
.	1E	2G/	1b
.	.	[2g\	.
=52	=52	=52	=52
0r	1A	2g\]	1cc
.	.	1f	.
.	1G	.	1b
.	.	2e\	.
=53	=53	=53	=53
0r	0F	2f\	2.dd\
.	.	1d	.
.	.	.	4cc\
.	.	.	1a
.	.	4c\	.
.	.	4d\	.
=54	=54	=54	=54
1B	0E	0e	1g
1B	.	.	1r
=55	=55	=55	=55
1c	0r	1r	1e
1B	.	1d	1g
=56	=56	=56	=56
1A	0r	1e	2a/
.	.	.	1cc
1G	.	1e	.
.	.	.	2b\
=57	=57	=57	=57
0F	0r	1f	2cc\
.	.	.	2.dd\
.	.	1d	.
.	.	.	4cc\
.	.	.	4b\
.	.	.	4a/
=58	=58	=58	=58
0E	0r	2e\	2g/
.	.	2c\	1a
.	.	1B	.
.	.	.	2g#i/
=59	=59	=59	=59
0r	0r	1A	1a
.	.	1r	1r
=60	=60	=60	=60
[0C	[0G	[0c	[0e
=61	=61	=61	=61
1C]	1G]	1c]	1e]
1BB	1G	1d	1d
=62	=62	=62	=62
0AA	0A	0e	0c
=63	=63	=63	=63
1r	1r	1r	1r
1C	1A	1e	1e
=64	=64	=64	=64
1D	1A	1d	1f
1E	1G	1B	1g
=65	=65	=65	=65
1F	1A	1A	1f
1G	1B	1G	1d
=66	=66	=66	=66
1.C	1.c	0G	1.e
2D\	2B\	.	2f/
=67	=67	=67	=67
2E\	1G	1r	2g/
2F\	.	.	4f/
.	.	.	4e/
1G	1B	[1d	2d/
.	.	.	[2g/
=68	=68	=68	=68
0D	0A	1d]	2g/]
.	.	.	4f#i/
.	.	.	4e/
.	.	1d	1f#i
=69	=69	=69	=69
2E\	0G	2.B\	1g
4D\	.	.	.
4C/	.	4c\	.
2BB/	.	2d\	2r
[2C/	.	[2G/	[2e/
=70	=70	=70	=70
2C/]	0r	2G/]	2e/]
2D\	.	1d	2f/
1E	.	.	1g
.	.	2c\	.
=71	=71	=71	=71
1D	0r	1d	2.a/
.	.	.	4g/
1A	.	1c	1e
=72	=72	=72	=72
1B	0E	0e	1r
[1c	.	.	1g
=73	=73	=73	=73
1c]	0F	1r	2.a/
.	.	.	4g/
1A	.	1a	[1cc
=74	=74	=74	=74
0d	0G	0g	2cc\]
.	.	.	4b\
.	.	.	4a/
.	.	.	1b
=75	=75	=75	=75
0c	0A	[0e	1.cc
.	.	.	4b\
.	.	.	4a/
=76	=76	=76	=76
0B	0E	0e]	0g
=77	=77	=77	=77
0r	1E	1e	1g
.	1F	1A	1a
=78	=78	=78	=78
0r	1G	1B	1e
.	1A	1c	1a
=79	=79	=79	=79
0r	1E	2B\	1g
.	.	2.e\	.
.	2E/	.	1cc
.	.	4d\	.
.	2F/	[2e\	.
=80	=80	=80	=80
0r	2G/	2e\]	2b\
.	2A/	2c\	1a
.	1E	1B	.
.	.	.	2g#i/
=81	=81	=81	=81
*M3/1	*M3/1	*M3/1	*M3/1
*met(O/3)	*met(O/3)	*met(O/3)	*met(O/3)
0A	0.r	0A	0a
1B	.	1r	1r
=82	=82	=82	=82
0c	0.r	1e	1g
.	.	1e	1g
1F	.	1f	1a
=83	=83	=83	=83
1c	0.r	1e	1g
1A	.	1.a	0cc
1F	.	.	.
.	.	2g\	.
=84	=84	=84	=84
1G	0.r	0g	1b
0d	.	.	0a
.	.	1f#i	.
=85	=85	=85	=85
0G	0E	1g	1g
.	.	1r	1r
[1d	1F	1r	1r
=86	=86	=86	=86
1d]	1G	0.r	0.r
0c	0A	.	.
=87	=87	=87	=87
1B	1E	0G	0.r
1E	1r	.	.
1F	1r	[1d	.
=88	=88	=88	=88
1G	0.r	1d]	0.r
0A	.	0c	.
=89	=89	=89	=89
1E	0.r	1B	0g
1r	.	1.c	.
1r	.	.	1a
.	.	2d\	.
=90	=90	=90	=90
0C	0G	0e	1g
.	.	.	0cc
1F	1A	1f	.
=91	=91	=91	=91
1G	1G	1d	1b
0F	0c	0f	1.a
.	.	.	2g/
=92	=92	=92	=92
1G	1B	1e	0g
0D	0A	0d	.
.	.	.	1f#i
=93	=93	=93	=93
1.E	1G	0B	0g
.	1r	.	.
2F\	.	.	.
1G	1r	1B	1r
=94	=94	=94	=94
1.A	0.r	1.c	0e
2G\	.	2B\	.
1A	.	2c\	1f
.	.	2d\	.
=95	=95	=95	=95
1E	0.r	0e	0g
1C	.	.	.
1F	.	1f	1a
=96	=96	=96	=96
1E	0c	1g	1g
1F	.	1f	1a
1C	1c	1g	1e
=97	=97	=97	=97
1F	0c	1f	1r
0A	.	1e	0cc
.	1c	1c	.
=98	=98	=98	=98
1F	0c	0.r	2b\
.	.	.	2a/
0E	.	.	0g
.	1c	.	.
=99	=99	=99	=99
0.D	0.d	0.r	0.f
=100	=100	=100	=100
0.D;	0.d;	0.d;	0.f;
=101	=101	=101	=101
0.F;	0.A;	0.c;	0.a;
=102	=102	=102	=102
0.E;	0.B;	0.e;	0.g;
=103	=103	=103	=103
0.B;l	0.E;l	0.e;l	0.g;l
!!LO:LB:i:g=z
=104||	=104||	=104||	=104||
*>C	*>C	*>C	*>C
*clefF4	*clefGv2	*clefGv2	*clefG2
*k[]	*k[]	*k[]	*k[]
*M2/1	*M2/1	*M2/1	*M2/1
*met(C|)	*met(C|)	*met(C|)	*met(C|)
!!section: Cum sancto spiritu
!!!OMD: Cum sancto spiritu
0r	1A	1.e	1a
.	1A	.	1cc
.	.	4d\	.
.	.	4c\	.
=105	=105	=105	=105
1r	1G	2d\	1b
.	.	2e\	.
1A	1A	1c	1e
=106	=106	=106	=106
1B	1E	2.e\	2r
.	.	.	2g/
.	.	4d\	.
1c	2A/	2e\	2a/
.	2A/	2f\	[2cc\
=107	=107	=107	=107
1d	1G	1g	2cc\]
.	.	.	2b\
1c	1A	[1e	2cc\
.	.	.	4b\
.	.	.	4a/
=108	=108	=108	=108
1B	1E	2e\]	1g
.	.	4d\	.
.	.	4c\	.
1E	1r	1B	2r
.	.	.	2g/
=109	=109	=109	=109
2F\	1A	1r	2a/
2F\	.	.	2.cc\
1E	2G/	[1e	.
.	.	.	4b\
.	2G/	.	2b\
=110	=110	=110	=110
1c	1A	1e]	2e/
.	.	.	1a
1B	1E	1e	.
.	.	.	2g#i/
=111	=111	=111	=111
1A	1r	0c	1a
2r	1A	.	1e
[2c\	.	.	.
=112	=112	=112	=112
2c\]	1G	1d	0r
2B\	.	.	.
2c\	1A	2r	.
4B\	.	2c\	.
4A\	.	.	.
=113	=113	=113	=113
2G\	1E	1B	2r
2B\	.	.	2g/
2c\	2r	2A/	2a/
2d\	2G/	2G/	2b\
=114	=114	=114	=114
2c\	2A/	0r	2cc\
2d\	2B\	.	4b\
.	.	.	4a/
1e	1c	.	1g
=115	=115	=115	=115
2.d\	1G	2B\	2r
.	.	2d\	2b\
4c\	.	.	.
2A\	2r	2c\	2cc\
2G\	2B\	2d\	2b\
=116	=116	=116	=116
1E	2c\	1e	2r
.	2B\	.	2b\
1r	1e	[1g	2cc\
.	.	.	[2b\
=117	=117	=117	=117
1r	2d\	1g]	2b\]
.	1c	.	1ee
1C	.	1g	.
.	4B\	.	4dd\
.	4A/	.	4cc\
=118	=118	=118	=118
1E	1G	2g\	1b
.	.	1e	.
1r	2A/	.	1r
.	2E/	[2e\	.
=119	=119	=119	=119
1A	1F	2e\]	1r
.	.	2d\	.
1B	1E	1e	2r
.	.	.	[2g/
=120	=120	=120	=120
2E\	1B	2e\	4g/]
.	.	.	4a/
2G\	.	2d\	2b\
2F\	1c	2f\	2a/
2C/	.	2e\	2g/
=121	=121	=121	=121
2G\	1d	2d\	2b\
2F\	.	2A/	2a/
2E\	2e\	2B\	2g/
2F\	[2c\	2A/	2a/
=122	=122	=122	=122
2A\	2c\]	2e\	2cc\
2G\	2d\	2g\	2.b\
2A\	2c\	4f\	.
.	.	2e\	4a/
2F\	2A/	.	2a/
.	.	4d\	.
=123	=123	=123	=123
2E\	0B	2e\	2g/
2D\	.	2f\	1a
1E	.	[1el	.
.	.	.	2g#i/
=124	=124	=124	=124
0Al	0Al	0e]	0al
==	==	==	==
*-	*-	*-	*-
!!!RDF**kern: l=long note in original notation
!!!RDF**kern: i=editorial accidental
!!!ENC:	Jesse Rodin 8/11/2013
!!!END:	2013/08/11/
!!!EED:	Jesse Rodin
!!!EEV:	2013/08/11/
!!!ONB:	Translated from MusicXML and edited on 2013/08/11/ by Craig Sapp
!!muse2ps: T^@{OPR}^u^@{ONM}{. }@{OTL}^C^@{COM}^i2I150v85,85,85,150c150
